dt-assets/images/add-group.svg

<svg xmlns="http://www.w3.org/2000/svg" xmlns:xlink="http://www.w3.org/1999/xlink" version="1.1" x="0px" y="0px" viewBox="0 0 100 100" enable-background="new 0 0 100 100" xml:space="preserve"><path d="M94.557,68.819l-8.117-0.038L86.395,60.4c-0.007-1.914-1.556-3.475-3.464-3.482c-0.915,0-1.774,0.357-2.422,1.013  c-0.655,0.657-1.011,1.532-1.009,2.474l0.04,8.342l-8.358-0.041c-0.935,0-1.811,0.364-2.465,1.021  c-0.65,0.651-1.004,1.511-0.999,2.432c0.011,1.89,1.573,3.433,3.478,3.441l8.379,0.043l0.039,8.124  c0.013,1.907,1.558,3.468,3.449,3.479h0.015c0.917,0,1.777-0.357,2.423-1.009c0.654-0.657,1.016-1.536,1.008-2.474l-0.036-8.084  l8.099,0.039c0.937,0,1.811-0.362,2.466-1.023c0.647-0.648,1.003-1.513,0.997-2.427C98.023,70.376,96.461,68.83,94.557,68.819z   M61.664,75.026H35.13c0-0.184,0.01-0.369,0.012-0.552c0.041-1.684,0.252-3.325,0.621-4.902c0.689-2.95,1.921-5.686,3.589-8.099  c0.985-1.425,2.119-2.735,3.378-3.912c4.263-3.972,9.982-6.408,16.268-6.408c5.624,0,10.785,1.948,14.862,5.193  c0.491-1.102,1.175-2.116,2.046-2.996c0.306-0.306,0.629-0.581,0.963-0.84c-2.518-2.005-5.365-3.608-8.46-4.685  c5.609-3.253,9.392-9.33,9.392-16.27c0-10.369-8.435-18.8-18.803-18.8c-10.363,0-18.793,8.432-18.793,18.8  c0,6.94,3.78,13.017,9.389,16.27c-3.729,1.295-7.099,3.348-9.958,5.958c-1.725-1.695-3.714-3.118-5.917-4.181  c3.27-2.742,5.352-6.857,5.352-11.447c0-8.246-6.708-14.949-14.949-14.949S9.179,29.911,9.179,38.157  c0,4.588,2.079,8.704,5.347,11.447c-7.424,3.584-12.56,11.188-12.56,19.969c0,2.708,2.198,4.902,4.903,4.902h23.379  c-0.003,0.183-0.022,0.366-0.022,0.552c0,2.706,2.196,4.9,4.903,4.9h29.895C63.454,78.684,62.262,76.983,61.664,75.026z   M45.106,31.557c0-7.677,6.222-13.898,13.896-13.898c7.676,0,13.897,6.223,13.897,13.898c0,7.676-6.222,13.895-13.897,13.895  C51.328,45.452,45.106,39.232,45.106,31.557z M14.078,38.157c0-5.549,4.497-10.045,10.043-10.045  c5.547,0,10.043,4.496,10.043,10.045c0,5.543-4.495,10.042-10.043,10.042C18.575,48.198,14.078,43.7,14.078,38.157z M6.87,69.572  c0-9.527,7.724-17.256,17.251-17.256c4.765,0,9.077,1.934,12.2,5.052c-2.739,3.515-4.682,7.667-5.554,12.204H6.87L6.87,69.572z"></path></svg>

<?xml version="1.0" encoding="UTF-8" standalone="no"?>
<!DOCTYPE svg PUBLIC "-//W3C//DTD SVG 1.1//EN" "http://www.w3.org/Graphics/SVG/1.1/DTD/svg11.dtd">
<svg width="100%" height="100%" viewBox="0 0 29 22" version="1.1" xmlns="http://www.w3.org/2000/svg" xmlns:xlink="http://www.w3.org/1999/xlink" xml:space="preserve" xmlns:serif="http://www.serif.com/" style="fill-rule:evenodd;clip-rule:evenodd;stroke-linejoin:round;stroke-miterlimit:2;">
    <g transform="matrix(0.295338,0,0,0.295338,-0.580634,-3.76703)">
        <path d="M94.557,68.819L86.44,68.781L86.395,60.4C86.388,58.486 84.839,56.925 82.931,56.918C82.016,56.918 81.157,57.275 80.509,57.931C79.854,58.588 79.498,59.463 79.5,60.405L79.54,68.747L71.182,68.706C70.247,68.706 69.371,69.07 68.717,69.727C68.067,70.378 67.713,71.238 67.718,72.159C67.729,74.049 69.291,75.592 71.196,75.6L79.575,75.643L79.614,83.767C79.627,85.674 81.172,87.235 83.063,87.246L83.078,87.246C83.995,87.246 84.855,86.889 85.501,86.237C86.155,85.58 86.517,84.701 86.509,83.763L86.473,75.679L94.572,75.718C95.509,75.718 96.383,75.356 97.038,74.695C97.685,74.047 98.041,73.182 98.035,72.268C98.023,70.376 96.461,68.83 94.557,68.819ZM61.664,75.026L35.13,75.026C35.13,74.842 35.14,74.657 35.142,74.474C35.183,72.79 35.394,71.149 35.763,69.572C36.452,66.622 37.684,63.886 39.352,61.473C40.337,60.048 41.471,58.738 42.73,57.561C46.993,53.589 52.712,51.153 58.998,51.153C64.622,51.153 69.783,53.101 73.86,56.346C74.351,55.244 75.035,54.23 75.906,53.35C76.212,53.044 76.535,52.769 76.869,52.51C74.351,50.505 71.504,48.902 68.409,47.825C74.018,44.572 77.801,38.495 77.801,31.555C77.801,21.186 69.366,12.755 58.998,12.755C48.635,12.755 40.205,21.187 40.205,31.555C40.205,38.495 43.985,44.572 49.594,47.825C45.865,49.12 42.495,51.173 39.636,53.783C37.911,52.088 35.922,50.665 33.719,49.602C36.989,46.86 39.071,42.745 39.071,38.155C39.071,29.909 32.363,23.206 24.122,23.206C15.881,23.206 9.179,29.911 9.179,38.157C9.179,42.745 11.258,46.861 14.526,49.604C7.102,53.188 1.966,60.792 1.966,69.573C1.966,72.281 4.164,74.475 6.869,74.475L30.248,74.475C30.245,74.658 30.226,74.841 30.226,75.027C30.226,77.733 32.422,79.927 35.129,79.927L65.024,79.927C63.454,78.684 62.262,76.983 61.664,75.026ZM45.106,31.557C45.106,23.88 51.328,17.659 59.002,17.659C66.678,17.659 72.899,23.882 72.899,31.557C72.899,39.233 66.677,45.452 59.002,45.452C51.328,45.452 45.106,39.232 45.106,31.557ZM14.078,38.157C14.078,32.608 18.575,28.112 24.121,28.112C29.668,28.112 34.164,32.608 34.164,38.157C34.164,43.7 29.669,48.199 24.121,48.199C18.575,48.198 14.078,43.7 14.078,38.157ZM6.87,69.572C6.87,60.045 14.594,52.316 24.121,52.316C28.886,52.316 33.198,54.25 36.321,57.368C33.582,60.883 31.639,65.035 30.767,69.572L6.87,69.572Z" style="fill:white;fill-rule:nonzero;"/>
    </g>
</svg>
